fs/tab_inprivate_account_20_filled.svg

<svg viewBox="0 0 20 20" fill="none" xmlns="http://www.w3.org/2000/svg" height="1em" width="1em">
  <path d="M3 5.5C3 4.11929 4.11929 3 5.5 3H14.5C15.8807 3 17 4.11929 17 5.5V7.62734C16.5625 7.32218 16.052 7.11441 15.5 7.03544V5.5C15.5 4.94772 15.0523 4.5 14.5 4.5H5.5C4.94772 4.5 4.5 4.94772 4.5 5.5V14.5C4.5 15.0523 4.94772 15.5 5.5 15.5H10.003C10.001 15.5398 10 15.5798 10 15.62V15.94C10 16.3119 10.0559 16.6664 10.1606 17H5.5C4.11929 17 3 15.8807 3 14.5V5.5ZM18.5661 14.5289C18.305 14.2352 17.915 14 17.45 14H12.55C12.085 14 11.695 14.2352 11.4339 14.5289C11.1747 14.8204 11 15.2151 11 15.62V15.94C11 17.5744 12.6332 19 15 19C16.2407 19 17.2799 18.6082 17.9878 18H15V17H18.7611C18.9085 16.6847 18.9908 16.3474 18.9993 16H15V15H18.8668C18.7916 14.8266 18.6882 14.6663 18.5661 14.5289ZM15 13C13.6193 13 12.5 11.8807 12.5 10.5C12.5 9.11929 13.6193 8 15 8C15.8179 8 16.5441 8.39278 17.0002 9H15V10H17.45C17.4828 10.1616 17.5 10.3288 17.5 10.5C17.5 10.6712 17.4828 10.8384 17.45 11H15V12H17.0002C16.5441 12.6072 15.8179 13 15 13Z" fill="#212121"/>
</svg>

<svg viewBox="0 0 20 20" fill="none" xmlns="http://www.w3.org/2000/svg" height="1em" width="1em">
  <path d="M3 5.5A2.5 2.5 0 0 1 5.5 3h9A2.5 2.5 0 0 1 17 5.5v2.127a3.48 3.48 0 0 0-1.5-.592V5.5a1 1 0 0 0-1-1h-9a1 1 0 0 0-1 1v9a1 1 0 0 0 1 1h4.503a2.39 2.39 0 0 0-.003.12v.32c0 .372.056.726.16 1.06H5.5A2.5 2.5 0 0 1 3 14.5v-9Zm15.566 9.029c-.261-.294-.651-.529-1.116-.529h-4.9c-.465 0-.855.235-1.116.529-.26.291-.434.686-.434 1.091v.32c0 1.634 1.633 3.06 4 3.06 1.24 0 2.28-.392 2.988-1H15v-1h3.761a2.48 2.48 0 0 0 .238-1H15v-1h3.867a1.779 1.779 0 0 0-.3-.471ZM15 13a2.5 2.5 0 1 1 2-4h-2v1h2.45a2.512 2.512 0 0 1 0 1H15v1h2c-.456.607-1.182 1-2 1Z" fill="#212121"/>
</svg>
